!!!OTL: Niang han nÅ hui
!!!ARE: Asia, China,ˇHunan, Jiahe
!! I, 565
!!!SCT: C1477
!!!YEM: Copyright 1995, estate of Helmut Schaffrath.
**kern
*ICvox
*Ivox
!! Mixed meters:  2/4; 1/4; 3/4
*M3/4
*k[f#c#g#]
*A:
{4cc#
4ee
=1
8ee
8ee
8cc#
16cc#
16b
8cc#
8cc#
=2
*M2/4
8cc#
16cc#
16b
8a
16f#
16e
=3
4a
4b}
=4
*M3/4
{8b
8a
8f#
8a
4cc#
=5
*M2/4
8cc#
8cc#
8b
8a
=6
*M3/4
8b
8b
8a
8b
8a
8f#
=7
8.f#
16a
4f#}
==
!!!AGN: Wuge, Fengsuge, Banjia ge
!!!ONB: ESAC (Essen Associative Code) Database: HUANG
!!!AMT: irregular
!!!AIN: vox
!!!EED: Helmut Schaffrath
!!!EEV: 1.0
*-
